svgs/icons/sm/cars.svg

<svg xmlns="http://www.w3.org/2000/svg" viewBox="0 0 16 16" enable-background="new 0 0 16 16"><g fill="#34363D"><path d="M1 14.2c0 .4.3.8.8.8h1.6c.4 0 .8-.4.8-.8v-1.5h-3.2v1.5zM11.9 14.2c0 .4.4.8.8.8h1.6c.4 0 .8-.4.8-.8v-1.5h-3.1v1.5zM12.8 2.5c-.3-.9-.9-1.5-1.8-1.5h-6c-.8 0-1.5.6-1.8 1.5l-1.4 4.2c-.5.2-.8.7-.8 1.3v3.9h14v-3.9c0-.6-.3-1.1-.8-1.3l-1.4-4.2zm-8.4.5c.1-.3.4-.5.6-.5h6c.3 0 .5.2.6.5l1.1 3.4h-9.4l1.1-3.4zm-.7 7.3c-.6 0-1.2-.5-1.2-1.2.1-.6.6-1.1 1.2-1.1s1.2.5 1.2 1.2c0 .6-.5 1.1-1.2 1.1zm8.6 0c-.6 0-1.2-.5-1.2-1.2 0-.6.5-1.2 1.2-1.2s1.2.5 1.2 1.2c-.1.7-.6 1.2-1.2 1.2z"/></g></svg>

<svg xmlns="http://www.w3.org/2000/svg" viewBox="0 0 16 16"><path d="M1 14.2c0 .4.3.8.8.8h1.6c.4 0 .8-.4.8-.8v-1.5H1v1.5zm10.9 0c0 .4.4.8.8.8h1.6c.4 0 .8-.4.8-.8v-1.5H12v1.5zm.9-11.7C12.5 1.6 11.9 1 11 1H5c-.8 0-1.5.6-1.8 1.5L1.8 6.7c-.5.2-.8.7-.8 1.3v3.9h14V8c0-.6-.3-1.1-.8-1.3l-1.4-4.2zM4.4 3c.1-.3.4-.5.6-.5h6c.3 0 .5.2.6.5l1.1 3.4H3.3L4.4 3zm-.7 7.3c-.6 0-1.2-.5-1.2-1.2.1-.6.6-1.1 1.2-1.1s1.2.5 1.2 1.2c0 .6-.5 1.1-1.2 1.1zm8.6 0c-.6 0-1.2-.5-1.2-1.2 0-.6.5-1.2 1.2-1.2s1.2.5 1.2 1.2c-.1.7-.6 1.2-1.2 1.2z" fill="#34363D"/></svg>
